logos/icon-inverse.svg

<?xml version="1.0" encoding="UTF-8" standalone="no"?>
<svg
   width="258"
   height="258"
   viewBox="0 0 258 258"
   fill="none"
   version="1.1"
   id="svg5"
   sodipodi:docname="icon-inverse.svg"
   inkscape:version="1.4 (e7c3feb100, 2024-10-09)"
   xmlns:inkscape="http://www.inkscape.org/namespaces/inkscape"
   xmlns:sodipodi="http://sodipodi.sourceforge.net/DTD/sodipodi-0.dtd"
   xmlns="http://www.w3.org/2000/svg"
   xmlns:svg="http://www.w3.org/2000/svg">
  <defs
     id="defs5" />
  <sodipodi:namedview
     id="namedview5"
     pagecolor="#ffffff"
     bordercolor="#000000"
     borderopacity="0.25"
     inkscape:showpageshadow="2"
     inkscape:pageopacity="0.0"
     inkscape:pagecheckerboard="0"
     inkscape:deskcolor="#d1d1d1"
     inkscape:zoom="3.872764"
     inkscape:cx="138.91887"
     inkscape:cy="134.65835"
     inkscape:window-width="1532"
     inkscape:window-height="956"
     inkscape:window-x="0"
     inkscape:window-y="0"
     inkscape:window-maximized="1"
     inkscape:current-layer="svg5" />
  <path
     fill-rule="evenodd"
     clip-rule="evenodd"
     d="M62.4207 256.771H129.411H196.401C198.747 256.771 201.065 256.771 203.406 256.758C205.365 256.758 207.308 256.733 209.286 256.69C213.582 256.633 217.868 256.255 222.108 255.558C226.342 254.83 230.442 253.469 234.271 251.521C238.105 249.577 241.602 247.03 244.629 243.977C247.683 240.963 250.229 237.474 252.168 233.646C254.115 229.811 255.463 225.701 256.167 221.458C256.88 217.224 257.263 212.94 257.314 208.646C257.354 207.288 257.37 205.959 257.386 204.62C257.393 203.999 257.401 203.376 257.411 202.746V54.8148C257.407 54.579 257.403 54.343 257.4 54.1071C257.395 53.7135 257.39 53.3198 257.386 52.926V52.9242C257.37 51.5895 257.354 50.2539 257.314 48.9213C257.263 44.6271 256.88 40.3434 256.167 36.1085C255.461 31.8682 254.113 27.7605 252.168 23.9272C250.228 20.0863 247.683 16.5831 244.629 13.5522C241.591 10.5128 238.096 7.96765 234.271 6.00879C230.442 4.06641 226.341 2.71362 222.108 1.99597C217.869 1.2937 213.582 0.915649 209.286 0.865112L208.058 0.845093C207.459 0.835205 206.863 0.825317 206.267 0.816406C205.313 0.802002 204.361 0.790039 203.406 0.783813C202.261 0.777588 201.122 0.774414 199.982 0.772705C198.791 0.770996 197.6 0.770996 196.401 0.770996H129.411H62.4207C60.0742 0.770996 57.756 0.770996 55.4158 0.783813C53.8572 0.794067 52.3083 0.81958 50.7443 0.845459L49.5356 0.865112C45.239 0.915649 40.9524 1.2937 36.7131 1.99597C32.48 2.71362 28.3793 4.06653 24.5499 6.00879C20.7252 7.96765 17.2306 10.5129 14.1926 13.5522C11.1387 16.5831 8.59302 20.0863 6.65344 23.9272C4.70862 27.7605 3.35999 31.8682 2.6543 36.1085C1.94177 40.3434 1.55847 44.6272 1.50757 48.9213C1.44824 50.8835 1.44189 52.8523 1.41064 54.8148V202.746C1.42041 203.368 1.42761 203.984 1.43481 204.598L1.43518 204.617C1.45117 205.957 1.46704 207.287 1.50757 208.646C1.55847 212.94 1.94177 217.224 2.6543 221.458C3.35803 225.701 4.70667 229.811 6.65344 233.646C8.59216 237.474 11.1382 240.963 14.1926 243.977C17.219 247.03 20.7161 249.577 24.5499 251.521C28.3793 253.469 32.4795 254.83 36.7131 255.558C40.9531 256.255 45.2393 256.633 49.5356 256.69C51.5134 256.733 53.4568 256.758 55.4158 256.758C55.9252 256.761 56.4335 256.763 56.9413 256.765C58.7666 256.771 60.5851 256.771 62.4207 256.771Z"
     fill="#1E1E1E"
     id="path1" />
  <path
     fill-rule="evenodd"
     clip-rule="evenodd"
     d="M55.4543 251.271H203.367C205.32 251.271 207.226 251.246 209.164 251.202C213.179 251.15 217.185 250.801 221.148 250.158C224.843 249.522 228.423 248.339 231.769 246.648C235.085 244.972 238.109 242.773 240.726 240.137C243.38 237.532 245.59 234.51 247.268 231.192C248.965 227.852 250.139 224.272 250.749 220.577C251.409 216.607 251.766 212.592 251.817 208.567C251.857 207.216 251.911 202.719 251.911 202.719V54.7543C251.911 54.7543 251.854 50.3258 251.816 49.0246C251.768 45.0065 251.413 40.9979 250.755 37.0336C250.143 33.3283 248.968 29.7382 247.271 26.3874C245.599 23.0715 243.401 20.0478 240.763 17.4332C238.127 14.7939 235.094 12.584 231.772 10.8842C228.434 9.19883 224.861 8.02437 221.173 7.4C217.197 6.75033 213.177 6.39905 209.149 6.3492L203.364 6.271H55.4574L49.6726 6.3492C45.6439 6.39905 41.6246 6.75033 37.6486 7.4C33.9606 8.02437 30.3875 9.19883 27.049 10.8842C23.7278 12.584 20.694 14.7939 18.0583 17.4332C15.4198 20.0478 13.222 23.0715 11.5502 26.3874C9.85291 29.7382 8.67798 33.3283 8.06604 37.0336C7.40845 40.9979 7.05371 45.0065 7.00488 49.0246C6.96729 50.3258 6.91064 54.7543 6.91064 54.7543V202.719C6.91064 202.719 6.92712 204.114 6.94885 205.584C6.96606 206.753 6.98645 207.969 7.00452 208.567C7.05554 212.592 7.41235 216.607 8.0719 220.577C8.68274 224.272 9.85669 227.852 11.5532 231.192C13.2311 234.51 15.4412 237.532 18.0957 240.137C20.7124 242.773 23.7366 244.972 27.052 246.648C30.3983 248.339 33.9781 249.522 37.6736 250.158C41.6367 250.801 45.6421 251.15 49.6569 251.202C51.5948 251.246 53.501 251.271 55.4543 251.271Z"
     fill="black"
     id="path2" />
  <path
     fill-rule="evenodd"
     clip-rule="evenodd"
     d="m 31.25,56.3627 2.5902,-2.5917 h 38.0733 v 27.9484 l -16.7422,-0.0064 0.0175,98.118 16.7247,0.003 v 23.933 H 33.8402 L 31.25,201.175 Z"
     fill="#de4141"
     id="path3"
     sodipodi:nodetypes="ccccccccccc" />
  <path
     fill-rule="evenodd"
     clip-rule="evenodd"
     d="m 227.571,56.367 -2.59,-2.5917 h -38.073 v 27.9484 l 16.742,-0.0064 -0.018,98.1177 -16.724,0.004 v 23.932 h 38.073 l 2.59,-2.592 z"
     fill="#de4141"
     id="path4"
     sodipodi:nodetypes="ccccccccccc" />
  <path
     fill-rule="evenodd"
     clip-rule="evenodd"
     d="M77.9502 79.1188L80.5399 81.7086H114.165V199.183L116.755 201.773H142.066L144.656 199.183V81.7086H178.281L180.871 79.1188V56.365L178.281 53.7753H80.5399L77.9502 56.365V79.1188Z"
     fill="white"
     id="path5" />
</svg>

<svg width="258" height="258" viewBox="0 0 258 258" fill="none" xmlns="http://www.w3.org/2000/svg">
<path fill-rule="evenodd" clip-rule="evenodd" d="M62.4207 256.771H129.411H196.401C198.747 256.771 201.065 256.771 203.406 256.758C205.365 256.758 207.308 256.733 209.286 256.69C213.582 256.633 217.868 256.255 222.108 255.558C226.342 254.83 230.442 253.469 234.271 251.521C238.105 249.577 241.602 247.03 244.629 243.977C247.683 240.963 250.229 237.474 252.168 233.646C254.115 229.811 255.463 225.701 256.167 221.458C256.88 217.224 257.263 212.94 257.314 208.646C257.354 207.288 257.37 205.959 257.386 204.62C257.393 203.999 257.401 203.376 257.411 202.746V54.8148C257.407 54.579 257.403 54.343 257.4 54.1071C257.395 53.7135 257.39 53.3198 257.386 52.926V52.9242C257.37 51.5895 257.354 50.2539 257.314 48.9213C257.263 44.6271 256.88 40.3434 256.167 36.1085C255.461 31.8682 254.113 27.7605 252.168 23.9272C250.228 20.0863 247.683 16.5831 244.629 13.5522C241.591 10.5128 238.096 7.96765 234.271 6.00879C230.442 4.06641 226.341 2.71362 222.108 1.99597C217.869 1.2937 213.582 0.915649 209.286 0.865112L208.058 0.845093C207.459 0.835205 206.863 0.825317 206.267 0.816406C205.313 0.802002 204.361 0.790039 203.406 0.783813C202.261 0.777588 201.122 0.774414 199.982 0.772705C198.791 0.770996 197.6 0.770996 196.401 0.770996H129.411H62.4207C60.0742 0.770996 57.756 0.770996 55.4158 0.783813C53.8572 0.794067 52.3083 0.81958 50.7443 0.845459L49.5356 0.865112C45.239 0.915649 40.9524 1.2937 36.7131 1.99597C32.48 2.71362 28.3793 4.06653 24.5499 6.00879C20.7252 7.96765 17.2306 10.5129 14.1926 13.5522C11.1387 16.5831 8.59302 20.0863 6.65344 23.9272C4.70862 27.7605 3.35999 31.8682 2.6543 36.1085C1.94177 40.3434 1.55847 44.6272 1.50757 48.9213C1.44824 50.8835 1.44189 52.8523 1.41064 54.8148V202.746C1.42041 203.368 1.42761 203.984 1.43481 204.598L1.43518 204.617C1.45117 205.957 1.46704 207.287 1.50757 208.646C1.55847 212.94 1.94177 217.224 2.6543 221.458C3.35803 225.701 4.70667 229.811 6.65344 233.646C8.59216 237.474 11.1382 240.963 14.1926 243.977C17.219 247.03 20.7161 249.577 24.5499 251.521C28.3793 253.469 32.4795 254.83 36.7131 255.558C40.9531 256.255 45.2393 256.633 49.5356 256.69C51.5134 256.733 53.4568 256.758 55.4158 256.758C55.9252 256.761 56.4335 256.763 56.9413 256.765C58.7666 256.771 60.5851 256.771 62.4207 256.771Z" fill="#1E1E1E"/>
<path fill-rule="evenodd" clip-rule="evenodd" d="M55.4543 251.271H203.367C205.32 251.271 207.226 251.246 209.164 251.202C213.179 251.15 217.185 250.801 221.148 250.158C224.843 249.522 228.423 248.339 231.769 246.648C235.085 244.972 238.109 242.773 240.726 240.137C243.38 237.532 245.59 234.51 247.268 231.192C248.965 227.852 250.139 224.272 250.749 220.577C251.409 216.607 251.766 212.592 251.817 208.567C251.857 207.216 251.911 202.719 251.911 202.719V54.7543C251.911 54.7543 251.854 50.3258 251.816 49.0246C251.768 45.0065 251.413 40.9979 250.755 37.0336C250.143 33.3283 248.968 29.7382 247.271 26.3874C245.599 23.0715 243.401 20.0478 240.763 17.4332C238.127 14.7939 235.094 12.584 231.772 10.8842C228.434 9.19883 224.861 8.02437 221.173 7.4C217.197 6.75033 213.177 6.39905 209.149 6.3492L203.364 6.271H55.4574L49.6726 6.3492C45.6439 6.39905 41.6246 6.75033 37.6486 7.4C33.9606 8.02437 30.3875 9.19883 27.049 10.8842C23.7278 12.584 20.694 14.7939 18.0583 17.4332C15.4198 20.0478 13.222 23.0715 11.5502 26.3874C9.85291 29.7382 8.67798 33.3283 8.06604 37.0336C7.40845 40.9979 7.05371 45.0065 7.00488 49.0246C6.96729 50.3258 6.91064 54.7543 6.91064 54.7543V202.719C6.91064 202.719 6.92712 204.114 6.94885 205.584C6.96606 206.753 6.98645 207.969 7.00452 208.567C7.05554 212.592 7.41235 216.607 8.0719 220.577C8.68274 224.272 9.85669 227.852 11.5532 231.192C13.2311 234.51 15.4412 237.532 18.0957 240.137C20.7124 242.773 23.7366 244.972 27.052 246.648C30.3983 248.339 33.9781 249.522 37.6736 250.158C41.6367 250.801 45.6421 251.15 49.6569 251.202C51.5948 251.246 53.501 251.271 55.4543 251.271Z" fill="black"/>
<path fill-rule="evenodd" clip-rule="evenodd" d="M31.25 56.3627L33.8402 53.771H66.258L65.3767 56.3627V79.1149L66.258 81.7194L55.1713 81.713L55.1888 179.831L71.9135 179.834V182.423V201.175V203.767H33.8402L31.25 201.175V56.3627Z" fill="#DE4141"/>
<path fill-rule="evenodd" clip-rule="evenodd" d="M227.571 56.367L224.981 53.7753H192.563L193.445 56.367V79.1192L192.563 81.7237L203.65 81.7173L203.632 179.835L186.908 179.839V182.427V201.179V203.771H224.981L227.571 201.179V56.367Z" fill="#DE4141"/>
<path fill-rule="evenodd" clip-rule="evenodd" d="M77.9502 79.1188L80.5399 81.7086H114.165V199.183L116.755 201.773H142.066L144.656 199.183V81.7086H178.281L180.871 79.1188V56.365L178.281 53.7753H80.5399L77.9502 56.365V79.1188Z" fill="white"/>
</svg>
